!!!COM: the-pogues
!!!OTL: streams-of-whiskey
!!!RNB: hooktheoryid: knJmBrpEmAV
**kern	**text
*clefG2	*
*k[f#c#]	*
*M4/4	*
=1	=1
8.d	D
16d	.
8d	.
8e	.
4d	.
8d	.
8e	.
=2	=2
8.f#	D
16f#	.
8f#	.
8e	.
8f#	.
8a	.
8d	.
8e	.
=3	=3
8.f#	D
16a	.
8dd	.
8cc#	.
8b	.
8a	.
8g	.
8f#	.
=4	=4
8.e	A
16d	.
16e	.
16e	.
8f#	.
4e	.
8d	.
8e	.
=5	=5
8.d	D
16d	.
8d	.
8e	.
4d	.
8d	.
8e	.
=6	=6
4f#	D
8f#	.
8e	.
8f#	.
8a	.
8d	.
8e	.
=7	=7
8.f#	D
16a	.
8dd	.
8cc#	.
8b	G
8a	.
8g	.
8f#	.
=8	=8
8e	A
8d	.
8d	.
8e	.
4d	D
8d	.
8e	.
=9	=9
1r	.
*-	*-